X:1
T:60
L:1/8
M:2/4
K:Dmin
V:1 treble nm="Piano" snm="Pno."
V:1
!mp! (DA AD | G3 F |!>(! E>G FE | D>!>)!C A,2) |!<(! (D>E FG | A>!<)!c AG |!>(! FG/A/ GF!>)! | %7
 D4) |!mf! C>D FD | F>G Ac |!<(! AA/c/ GA/c/!<)! | A4 | DA DA | DG DG |!>(! FG/A/ GF!>)! | D4 |] %16

